X:01
T: Miss McLeod's
M: 4/4
L: 1/8
Z: Contributed 20020807223930 by Zina Lee zlee@ntw.net
K: G
|:G2 BG DGBG|B2 BA BcBA|G2 BG DGBG|A2 AG AcBA|
G2 BG DGBG| B2 BA B2 d2|ed cb cdef|gedB AcBA:|
|:G2 gf edeg|B2 BA BcBA| G2 gf edeg|A2 AG AcBA|
G2 gf edeg|BcBA B2 d2|edcB cdef|gedB A2BA:|
